public/static/lp/bettervim.svg

<svg width="140" height="35" viewBox="0 0 140 35" fill="none" xmlns="http://www.w3.org/2000/svg">
<path d="M15.5343 27.2891V23.699H19.6047C20.2958 23.699 20.8099 23.522 21.147 23.1681C21.4841 22.8141 21.6526 22.3 21.6526 21.6258C21.6526 20.9516 21.4841 20.446 21.147 20.1089C20.8099 19.7549 20.2958 19.578 19.6047 19.578H15.5343V16.7969H19.453C20.7509 16.7969 21.9139 16.957 22.942 17.2773C23.9702 17.5806 24.7792 18.0863 25.3691 18.7942C25.9591 19.5021 26.254 20.446 26.254 21.6258V21.9798C26.254 23.0922 25.9928 24.0445 25.4703 24.8367C24.9478 25.6289 24.1809 26.2357 23.1696 26.657C22.1583 27.0784 20.9194 27.2891 19.453 27.2891H15.5343ZM11.4891 27.2891V8.52953H16.0399V27.2891H11.4891ZM15.5343 18.87V16.089H18.9221C19.6132 16.089 20.1104 15.9204 20.4138 15.5833C20.734 15.2294 20.8941 14.7406 20.8941 14.1169C20.8941 13.4765 20.734 12.9877 20.4138 12.6506C20.1104 12.2966 19.6132 12.1196 18.9221 12.1196H15.5343V8.52953H18.7198C20.8773 8.52953 22.5459 8.98461 23.7258 9.89478C24.9056 10.7881 25.4955 12.0691 25.4955 13.7377V14.1169C25.4955 15.2799 25.1921 16.2154 24.5854 16.9233C23.9954 17.6144 23.1864 18.1116 22.1583 18.415C21.147 18.7184 20.0008 18.87 18.7198 18.87H15.5343ZM34.6833 27.6431C33.5035 27.6431 32.4585 27.4408 31.5483 27.0363C30.6381 26.6318 29.8712 26.084 29.2476 25.3929C28.624 24.7019 28.1436 23.9265 27.8065 23.0669C27.4863 22.2073 27.3261 21.3224 27.3261 20.4123V19.9066C27.3261 18.9627 27.4863 18.061 27.8065 17.2014C28.1436 16.3249 28.6155 15.5496 29.2223 14.8754C29.846 14.2012 30.6044 13.6703 31.4977 13.2826C32.3911 12.8781 33.4024 12.6758 34.5316 12.6758C36.0317 12.6758 37.3043 13.0129 38.3493 13.6871C39.3943 14.3613 40.1949 15.2547 40.7511 16.3671C41.3073 17.4627 41.5854 18.6594 41.5854 19.9572V21.4236H29.2476V18.9459H38.9308L37.338 20.0583C37.338 19.2661 37.2284 18.6004 37.0093 18.061C36.8071 17.5048 36.4952 17.0834 36.0739 16.7969C35.6694 16.5104 35.1553 16.3671 34.5316 16.3671C33.9249 16.3671 33.3939 16.5104 32.9388 16.7969C32.5006 17.0666 32.1635 17.4879 31.9275 18.061C31.6916 18.6172 31.5736 19.3251 31.5736 20.1847C31.5736 20.9601 31.6832 21.6343 31.9023 22.2073C32.1214 22.7635 32.4585 23.1933 32.9136 23.4967C33.3686 23.8001 33.9586 23.9518 34.6833 23.9518C35.3238 23.9518 35.8463 23.8423 36.2508 23.6231C36.6722 23.404 36.9672 23.1091 37.1357 22.7383H41.3326C41.1304 23.6821 40.7258 24.5249 40.1191 25.2665C39.5291 26.0081 38.7707 26.5896 37.8436 27.011C36.9335 27.4324 35.88 27.6431 34.6833 27.6431ZM50.028 27.3397C48.5111 27.3397 47.2975 27.1543 46.3873 26.7835C45.494 26.4126 44.8451 25.7974 44.4406 24.9378C44.0361 24.0782 43.8338 22.9152 43.8338 21.4489L43.8591 9.54082H48.1065L48.0813 21.5753C48.0813 22.1989 48.2414 22.6793 48.5616 23.0164C48.8987 23.3366 49.3791 23.4967 50.0027 23.4967H51.9242V27.3397H50.028ZM41.8112 16.5188V13.1815H51.9242V16.5188H41.8112ZM60.4076 27.3397C58.8907 27.3397 57.6771 27.1543 56.767 26.7835C55.8736 26.4126 55.2247 25.7974 54.8202 24.9378C54.4157 24.0782 54.2134 22.9152 54.2134 21.4489L54.2387 9.54082H58.4862L58.4609 21.5753C58.4609 22.1989 58.621 22.6793 58.9412 23.0164C59.2783 23.3366 59.7587 23.4967 60.3823 23.4967H62.3038V27.3397H60.4076ZM52.1908 16.5188V13.1815H62.3038V16.5188H52.1908ZM70.6367 27.6431C69.4569 27.6431 68.4119 27.4408 67.5017 27.0363C66.5916 26.6318 65.8247 26.084 65.201 25.3929C64.5774 24.7019 64.097 23.9265 63.7599 23.0669C63.4397 22.2073 63.2796 21.3224 63.2796 20.4123V19.9066C63.2796 18.9627 63.4397 18.061 63.7599 17.2014C64.097 16.3249 64.569 15.5496 65.1757 14.8754C65.7994 14.2012 66.5578 13.6703 67.4512 13.2826C68.3445 12.8781 69.3558 12.6758 70.4851 12.6758C71.9851 12.6758 73.2577 13.0129 74.3027 13.6871C75.3477 14.3613 76.1483 15.2547 76.7045 16.3671C77.2607 17.4627 77.5389 18.6594 77.5389 19.9572V21.4236H65.201V18.9459H74.8842L73.2914 20.0583C73.2914 19.2661 73.1818 18.6004 72.9627 18.061C72.7605 17.5048 72.4487 17.0834 72.0273 16.7969C71.6228 16.5104 71.1087 16.3671 70.4851 16.3671C69.8783 16.3671 69.3473 16.5104 68.8923 16.7969C68.454 17.0666 68.1169 17.4879 67.881 18.061C67.645 18.6172 67.527 19.3251 67.527 20.1847C67.527 20.9601 67.6366 21.6343 67.8557 22.2073C68.0748 22.7635 68.4119 23.1933 68.867 23.4967C69.3221 23.8001 69.912 23.9518 70.6367 23.9518C71.2772 23.9518 71.7997 23.8423 72.2043 23.6231C72.6256 23.404 72.9206 23.1091 73.0891 22.7383H77.286C77.0838 23.6821 76.6793 24.5249 76.0725 25.2665C75.4825 26.0081 74.7241 26.5896 73.7971 27.011C72.8869 27.4324 71.8334 27.6431 70.6367 27.6431ZM79.3321 27.1374V13.1815H82.9728V19.2493H82.9222C82.9222 17.2941 83.3267 15.7603 84.1358 14.6479C84.9617 13.5355 86.1415 12.9792 87.6753 12.9792H88.2315V16.9233H87.1697C86.1415 16.9233 85.3409 17.2014 84.7678 17.7576C84.2116 18.3138 83.9335 19.1144 83.9335 20.1595V27.1374H79.3321ZM93.6124 27.1374L88.2525 8.68122H93.1067L97.1266 23.8254L96.2417 23.3956H98.6688L97.7587 23.8254L101.5 8.68122H106.203L101.197 27.1374H93.6124ZM107.958 27.1374V13.1815H112.56V27.1374H107.958ZM106.188 16.5188V13.1815H112.56V16.5188H106.188ZM109.854 12.0691C109.012 12.0691 108.388 11.8584 107.983 11.437C107.596 10.9988 107.402 10.4426 107.402 9.76837C107.402 9.09417 107.596 8.54638 107.983 8.12501C108.388 7.68678 109.003 7.46766 109.829 7.46766C110.672 7.46766 111.287 7.68678 111.675 8.12501C112.062 8.54638 112.256 9.09417 112.256 9.76837C112.256 10.4426 112.062 10.9988 111.675 11.437C111.287 11.8584 110.68 12.0691 109.854 12.0691ZM115.31 27.1374V13.1815H118.951V19.1987H118.749C118.749 17.7492 118.926 16.5525 119.28 15.6086C119.65 14.6479 120.19 13.9315 120.898 13.4596C121.606 12.9708 122.474 12.7264 123.502 12.7264H123.704C124.749 12.7264 125.617 12.9708 126.308 13.4596C127.016 13.9315 127.547 14.6479 127.901 15.6086C128.272 16.5525 128.457 17.7492 128.457 19.1987H127.395C127.395 17.7492 127.572 16.5525 127.926 15.6086C128.297 14.6479 128.836 13.9315 129.544 13.4596C130.252 12.9708 131.12 12.7264 132.148 12.7264H132.351C133.396 12.7264 134.272 12.9708 134.98 13.4596C135.705 13.9315 136.253 14.6479 136.623 15.6086C137.011 16.5525 137.205 17.7492 137.205 19.1987V27.1374H132.603V19.0723C132.603 18.4318 132.426 17.9009 132.072 17.4795C131.735 17.0413 131.247 16.8222 130.606 16.8222C129.966 16.8222 129.46 17.0413 129.089 17.4795C128.735 17.9009 128.558 18.4487 128.558 19.1229V27.1374H123.957V19.0723C123.957 18.4318 123.78 17.9009 123.426 17.4795C123.089 17.0413 122.6 16.8222 121.96 16.8222C121.319 16.8222 120.813 17.0413 120.443 17.4795C120.089 17.9009 119.912 18.4487 119.912 19.1229V27.1374H115.31Z" fill="#979AAD"/>
<path d="M1.21356 25V20.4744H5.66327V25H1.21356ZM1.21356 16.5809V12.0554H5.66327V16.5809H1.21356Z" fill="#979AAD"/>
</svg>

<svg xmlns="http://www.w3.org/2000/svg" width="140" height="35" fill="none"><path fill="#979AAD" d="M15.534 27.29v-3.591h4.07c.692 0 1.206-.177 1.543-.53.337-.355.506-.869.506-1.543 0-.674-.169-1.18-.506-1.517-.337-.354-.851-.531-1.542-.531h-4.07v-2.781h3.918c1.298 0 2.46.16 3.489.48 1.028.304 1.837.81 2.427 1.517.59.708.885 1.652.885 2.832v.354c0 1.112-.261 2.064-.784 2.857-.522.792-1.29 1.399-2.3 1.82-1.012.421-2.25.632-3.717.632h-3.919Zm-4.045 0V8.53h4.55v18.76h-4.55Zm4.045-8.42v-2.781h3.388c.691 0 1.188-.169 1.492-.506.32-.354.48-.842.48-1.466 0-.64-.16-1.13-.48-1.466-.304-.354-.8-.531-1.492-.531h-3.388V8.53h3.186c2.157 0 3.826.455 5.006 1.365 1.18.893 1.77 2.174 1.77 3.843v.379c0 1.163-.304 2.098-.91 2.806-.59.691-1.4 1.189-2.428 1.492-1.011.303-2.157.455-3.438.455h-3.186Zm19.15 8.773c-1.18 0-2.225-.202-3.136-.607a6.738 6.738 0 0 1-2.3-1.643 7.572 7.572 0 0 1-1.442-2.326 7.546 7.546 0 0 1-.48-2.655v-.505c0-.944.16-1.846.48-2.706a7.428 7.428 0 0 1 1.416-2.326 6.677 6.677 0 0 1 2.276-1.592c.893-.405 1.904-.607 3.034-.607 1.5 0 2.772.337 3.817 1.011a6.7 6.7 0 0 1 2.402 2.68c.556 1.096.834 2.292.834 3.59v1.467H29.248v-2.478h9.683l-1.593 1.112c0-.792-.11-1.458-.329-1.997-.202-.556-.514-.978-.935-1.264-.405-.287-.919-.43-1.542-.43-.607 0-1.138.143-1.593.43-.438.27-.776.69-1.012 1.264-.235.556-.353 1.264-.353 2.124 0 .775.11 1.45.328 2.022.22.556.556.986 1.012 1.29.455.303 1.045.455 1.77.455.64 0 1.162-.11 1.567-.329.421-.219.716-.514.885-.885h4.197a5.882 5.882 0 0 1-1.214 2.529c-.59.741-1.348 1.323-2.275 1.744-.91.421-1.964.632-3.16.632Zm15.344-.303c-1.517 0-2.73-.186-3.64-.556-.894-.371-1.543-.987-1.947-1.846-.405-.86-.607-2.023-.607-3.49l.025-11.907h4.247l-.025 12.034c0 .624.16 1.104.48 1.441.338.32.818.48 1.442.48h1.921v3.844h-1.896Zm-8.217-10.821v-3.337h10.113v3.337H41.811Zm18.597 10.82c-1.517 0-2.73-.185-3.641-.555-.893-.371-1.542-.987-1.947-1.846-.404-.86-.607-2.023-.607-3.49l.026-11.907h4.247l-.025 12.034c0 .624.16 1.104.48 1.441.337.32.818.48 1.441.48h1.922v3.844h-1.896ZM52.19 16.52v-3.337h10.113v3.337H52.19Zm18.446 11.124c-1.18 0-2.225-.202-3.135-.607a6.74 6.74 0 0 1-2.301-1.643 7.572 7.572 0 0 1-1.441-2.326 7.546 7.546 0 0 1-.48-2.655v-.505c0-.944.16-1.846.48-2.706a7.43 7.43 0 0 1 1.416-2.326 6.676 6.676 0 0 1 2.275-1.592c.894-.405 1.905-.607 3.034-.607 1.5 0 2.773.337 3.818 1.011a6.7 6.7 0 0 1 2.401 2.68c.557 1.096.835 2.292.835 3.59v1.467H65.2v-2.478h9.683l-1.593 1.112c0-.792-.11-1.458-.328-1.997-.203-.556-.514-.978-.936-1.264-.404-.287-.918-.43-1.542-.43-.607 0-1.138.143-1.593.43-.438.27-.775.69-1.011 1.264-.236.556-.354 1.264-.354 2.124 0 .775.11 1.45.329 2.022.219.556.556.986 1.011 1.29.455.303 1.045.455 1.77.455.64 0 1.163-.11 1.567-.329.422-.219.717-.514.885-.885h4.197a5.881 5.881 0 0 1-1.213 2.529c-.59.741-1.349 1.323-2.276 1.744-.91.421-1.964.632-3.16.632Zm8.695-.506V13.181h3.64v6.068h-.05c0-1.955.405-3.489 1.214-4.601.826-1.112 2.005-1.669 3.54-1.669h.555v3.944H87.17c-1.029 0-1.83.278-2.402.835-.556.556-.835 1.356-.835 2.402v6.977h-4.6Zm14.28 0-5.36-18.456h4.855l4.02 15.144-.885-.43h2.427l-.91.43L101.5 8.681h4.703l-5.006 18.456h-7.585Zm14.346 0V13.181h4.602v13.956h-4.602Zm-1.77-10.618v-3.337h6.372v3.337h-6.372Zm3.666-4.45c-.842 0-1.466-.21-1.871-.632-.387-.438-.581-.994-.581-1.669 0-.674.194-1.222.581-1.643.405-.438 1.02-.657 1.846-.657.843 0 1.458.219 1.846.657.387.421.581.97.581 1.643 0 .675-.194 1.23-.581 1.669-.388.421-.995.632-1.821.632Zm5.456 15.068V13.181h3.641V19.2h-.202c0-1.45.177-2.647.531-3.59.37-.961.91-1.678 1.618-2.15.708-.488 1.576-.733 2.604-.733h.202c1.045 0 1.913.245 2.604.734.708.471 1.239 1.188 1.593 2.149.371.943.556 2.14.556 3.59h-1.062c0-1.45.177-2.647.531-3.59.371-.961.91-1.678 1.618-2.15.708-.488 1.576-.733 2.604-.733h.203c1.045 0 1.921.245 2.629.734.725.471 1.273 1.188 1.643 2.149.388.943.582 2.14.582 3.59v7.938h-4.602v-8.065c0-.64-.177-1.171-.531-1.592-.337-.439-.825-.658-1.466-.658-.64 0-1.146.22-1.517.658-.354.42-.531.969-.531 1.643v8.014h-4.601v-8.065c0-.64-.177-1.171-.531-1.592-.337-.439-.826-.658-1.466-.658-.641 0-1.147.22-1.517.658-.354.42-.531.969-.531 1.643v8.014h-4.602ZM1.214 25v-4.526h4.45V25h-4.45Zm0-8.42v-4.525h4.45v4.526h-4.45Z"/></svg>
